X: 08031
T: DAVY LEE'S HORNPIPE
C: Bob McQuillen 18 Apr 91
B: Bob's Note Book 8 #31
%R: hornpipe, reel
Z: 2021 John Chambers <jc:trillian.mit.edu>
M: C
L: 1/8
K: D
de \
| fdAF GBAG | FAdc d2cd | BGEG BdcB | ABAF ABde |\
| fdAF GBAG | FAdf edcd | Adfa gecd | e2d2 d2 :|
|: ef \
| gdBd gbag | fafd A2fa | gece gbag | fdAd fdef |\
| gdBd g2ag | fafd Adfd | ABcd efga | f2d2 d2 :|
%%begintext align
%% Back in the early
%% 70's, Dick and Marlene Levine arranged for the Canterbury
%% Orchestra to go down to the Middletown, NJ, Folk Festival.
%% We had a great time, and it was there that I met their
%% young son, David, who was just getting started with the
%% fiddle. He can fiddle up a storm now, and this is his
%% tune. Hope you have fun with it, David!
%%endtext

%%sep 1 1 500

%%sep 1 1 500

